// ============================================================
//  © [2025] [JoenTNT]
//  Licensed under the Apache License, Version 2.0
//  http://www.apache.org/licenses/LICENSE-2.0
// ============================================================

shader_type canvas_item;
render_mode blend_mix, unshaded;

void fragment() {
	// TODO: Customize to Circle pointer in Color Picker.
}
